X: 33695
T: Randers Hopsa
R: polka
M: 2/4
K: Dmajor
|:FA,DF ADFA|dFAd fg/f/ ed|cAEF G>FGB/B/|AdDE F3 F/F/|
FA,DF ADFA|dFAd fg/f/ ed|cAEF G>A Bc|dd/d/ dd d4:|
|:e2 ce a2 ^gf|ec AB c3 e|d>c Bc def^g|b>a ^gf ecd^d|
e2 ce a2 ^gf|ec AB c3 e|d>c Bc def^g|aa/a/ aa a4:|
|:f2 ed d2 cB|A2 F/E/D A,DFA|G>F EF GAcA|d2 d/c/d/e/ fd A2|
f2 ed d2 cB|A2 F/E/D A,DFA|G>F EF GABc|dd/d/ dd d4:|

